X: 32116
T: Peter  Flanagan's
R: reel
M: 4/4
K: Gmajor
EAAG A2 Bd|eged eg g2|gedB G2 Bd|edBA GE D2|
EAAG A2 Bd|eged eg g2|gedB GABd|egdB A4:|
|:a2 ea a2 ea|a2 ba ge d2|g2 dg eg d2|gbag ge dg|
ageg a4|agba ge d2|gedB GABd|egdB A4:|

